docs/images/icons/Adobe_Photoshop.svg

<svg width="50" height="50" viewBox="0 0 50 50" fill="none" xmlns="http://www.w3.org/2000/svg">
<g id="Adobe_Photoshop_CC_icon 1" clip-path="url(#clip0_49_64)">
<g id="Layer_2_1_">
<g id="Surfaces">
<g id="Photo_Surface">
<g id="Outline_no_shadow">
<path id="Vector" d="M8.85417 0H41.1458C46.0417 0 50 4.05983 50 9.0812V40.9188C50 45.9402 46.0417 50 41.1458 50H8.85417C3.95833 50 0 45.9402 0 40.9188V9.0812C0 4.05983 3.95833 0 8.85417 0Z" fill="#001E36"/>
</g>
</g>
</g>
<g id="Outlined_Mnemonics_Logos">
<g id="Ps">
<path id="Vector_2" d="M11.25 35.0641V13.0769C11.25 12.9274 11.3125 12.8419 11.4583 12.8419C11.8125 12.8419 12.1458 12.8419 12.625 12.8205C13.125 12.7992 13.6458 12.7992 14.2083 12.7778C14.7708 12.7564 15.375 12.7564 16.0208 12.7351C16.6667 12.7137 17.2917 12.7137 17.9167 12.7137C19.625 12.7137 21.0417 12.9274 22.2083 13.3761C23.25 13.7393 24.2083 14.3376 25 15.1282C25.6667 15.812 26.1875 16.6453 26.5208 17.5641C26.8333 18.4615 27 19.3803 27 20.3419C27 22.1795 26.5833 23.6966 25.75 24.8932C24.9167 26.0898 23.75 26.9872 22.3958 27.5C20.9792 28.0342 19.4167 28.2265 17.7083 28.2265C17.2083 28.2265 16.875 28.2265 16.6667 28.2051C16.4583 28.1838 16.1667 28.1838 15.7708 28.1838V35.0427C15.7917 35.1923 15.6875 35.3205 15.5417 35.3419C15.5208 35.3419 15.5 35.3419 15.4583 35.3419H11.5C11.3333 35.3419 11.25 35.2564 11.25 35.0641ZM15.7917 16.9658V24.1453C16.0833 24.1667 16.3542 24.188 16.6042 24.188H17.7083C18.5208 24.188 19.3333 24.0598 20.1042 23.8034C20.7708 23.6111 21.3542 23.2051 21.8125 22.6709C22.25 22.1368 22.4583 21.4103 22.4583 20.4701C22.4792 19.8077 22.3125 19.1453 21.9792 18.5684C21.625 18.0128 21.125 17.5855 20.5208 17.3504C19.75 17.0299 18.9167 16.9017 18.0625 16.9231C17.5208 16.9231 17.0417 16.9231 16.6458 16.9445C16.2292 16.9231 15.9375 16.9445 15.7917 16.9658Z" fill="#31A8FF"/>
<path id="Vector_3" d="M40 22.8419C39.375 22.5 38.7083 22.265 38 22.1154C37.2292 21.9444 36.4583 21.8376 35.6667 21.8376C35.25 21.8162 34.8125 21.8803 34.4167 21.9872C34.1458 22.0513 33.9167 22.2009 33.7708 22.4145C33.6667 22.5855 33.6042 22.7991 33.6042 22.9914C33.6042 23.1838 33.6875 23.3761 33.8125 23.547C34 23.782 34.25 23.9744 34.5208 24.1239C35 24.3803 35.5 24.6154 36 24.8291C37.125 25.2137 38.2083 25.7479 39.2083 26.3889C39.8958 26.8376 40.4583 27.4359 40.8542 28.1624C41.1875 28.8462 41.3542 29.594 41.3333 30.3632C41.3542 31.3675 41.0625 32.3718 40.5208 33.2051C39.9375 34.0598 39.125 34.7222 38.1875 35.1068C37.1667 35.5556 35.9167 35.7906 34.4167 35.7906C33.4583 35.7906 32.5208 35.7051 31.5833 35.5128C30.8542 35.3846 30.125 35.1496 29.4583 34.8291C29.3125 34.7436 29.2083 34.594 29.2292 34.4231V30.7051C29.2292 30.641 29.25 30.5556 29.3125 30.5128C29.375 30.4701 29.4375 30.4914 29.5 30.5342C30.3125 31.0256 31.1667 31.3675 32.0833 31.5812C32.875 31.7949 33.7083 31.9017 34.5417 31.9017C35.3333 31.9017 35.8958 31.7949 36.2708 31.6026C36.6042 31.453 36.8333 31.0897 36.8333 30.7051C36.8333 30.406 36.6667 30.1282 36.3333 29.8504C36 29.5726 35.3125 29.2521 34.2917 28.8462C33.2292 28.4615 32.25 27.9487 31.3333 27.3077C30.6875 26.8376 30.1458 26.2179 29.75 25.4914C29.4167 24.8077 29.25 24.0598 29.2708 23.312C29.2708 22.3932 29.5208 21.5171 29.9792 20.7265C30.5 19.8718 31.2708 19.188 32.1667 18.7607C33.1458 18.2479 34.375 18.0128 35.8542 18.0128C36.7083 18.0128 37.5833 18.0769 38.4375 18.2051C39.0625 18.2906 39.6667 18.4615 40.2292 18.6966C40.3125 18.7179 40.3958 18.8034 40.4375 18.8889C40.4583 18.9744 40.4792 19.0598 40.4792 19.1453V22.6282C40.4792 22.7137 40.4375 22.7991 40.375 22.8419C40.1875 22.8846 40.0833 22.8846 40 22.8419Z" fill="#31A8FF"/>
</g>
</g>
</g>
</g>
<defs>
<clipPath id="clip0_49_64">
<rect width="50" height="50" fill="white"/>
</clipPath>
</defs>
</svg>

<svg width="50" height="50" fill="none" xmlns="http://www.w3.org/2000/svg"><g clip-path="url(#a)"><path d="M8.854 0h32.292C46.042 0 50 4.06 50 9.081V40.92c0 5.02-3.958 9.08-8.854 9.08H8.854C3.958 50 0 45.94 0 40.919V9.08C0 4.06 3.958 0 8.854 0Z" fill="#001E36"/><path d="M11.25 35.064V13.077c0-.15.063-.235.208-.235.354 0 .688 0 1.167-.022.5-.02 1.02-.02 1.583-.042.563-.022 1.167-.022 1.813-.043.646-.021 1.27-.021 1.896-.021 1.708 0 3.125.213 4.291.662A7.41 7.41 0 0 1 25 15.128a6.826 6.826 0 0 1 1.52 2.436c.313.898.48 1.816.48 2.778 0 1.838-.417 3.355-1.25 4.551a7.16 7.16 0 0 1-3.354 2.607c-1.417.534-2.98.727-4.688.727-.5 0-.833 0-1.041-.022-.209-.021-.5-.021-.896-.021v6.859a.265.265 0 0 1-.23.299H11.5c-.167 0-.25-.086-.25-.278Zm4.542-18.098v7.18c.291.02.562.042.812.042h1.104c.813 0 1.625-.128 2.396-.385.667-.192 1.25-.598 1.709-1.132.437-.534.645-1.26.645-2.2a3.587 3.587 0 0 0-.479-1.903 3.039 3.039 0 0 0-1.458-1.218c-.771-.32-1.604-.448-2.459-.427-.541 0-1.02 0-1.416.022-.417-.022-.709 0-.854.02ZM40 22.842a7.254 7.254 0 0 0-2-.727 10.717 10.717 0 0 0-2.333-.277 4.092 4.092 0 0 0-1.25.15c-.271.063-.5.213-.646.427a1.154 1.154 0 0 0-.167.576c0 .193.084.385.209.556.187.235.437.427.708.577.479.256.979.491 1.479.705 1.125.385 2.208.919 3.208 1.56a4.921 4.921 0 0 1 1.646 1.773c.334.684.5 1.432.48 2.201a5.063 5.063 0 0 1-.813 2.842 5.245 5.245 0 0 1-2.334 1.902c-1.02.449-2.27.684-3.77.684-.959 0-1.896-.086-2.834-.278a8.254 8.254 0 0 1-2.125-.684c-.145-.085-.25-.235-.229-.406v-3.718c0-.064.021-.15.084-.192.062-.043.125-.022.187.021a8.791 8.791 0 0 0 2.583 1.047 9.47 9.47 0 0 0 2.459.32c.791 0 1.354-.106 1.729-.298a.994.994 0 0 0 .562-.898c0-.299-.166-.577-.5-.855-.333-.277-1.02-.598-2.041-1.004a12.634 12.634 0 0 1-2.959-1.538 5.488 5.488 0 0 1-1.583-1.817 4.683 4.683 0 0 1-.48-2.179c0-.919.25-1.795.71-2.585a5.177 5.177 0 0 1 2.187-1.966c.979-.513 2.208-.748 3.687-.748.854 0 1.73.064 2.584.192a7.212 7.212 0 0 1 1.791.492c.084.02.167.106.209.192.02.085.041.17.041.256v3.483a.264.264 0 0 1-.104.214c-.188.043-.292.043-.375 0Z" fill="#31A8FF"/></g><defs><clipPath id="a"><path fill="#fff" d="M0 0h50v50H0z"/></clipPath></defs></svg>
